Suru++-Ubuntu/apps/symbolic/microscope-symbolic.svg

<svg width="16" height="16" version="1.1" xmlns="http://www.w3.org/2000/svg">
 <path d="m6.429687 0.60553014c-0.324024 0-0.647163 0.0412201-0.935547 0.1230469-0.271899 0.0774799-0.625 0.42773426-0.625 0.42773426v0.4277344h3.1210941v-0.4277344s-0.3511631-0.35070766-0.6230471-0.42773426c-0.288383-0.0818268-0.613475-0.1230469-0.9375-0.1230469zm1.5839846 1.3632812c-0.3716036-0.00219-0.7474866 0.012353-1.0996096 0.03125-0.089169 0.00463-0.076534 0.0083-0.162109 0.013672h-1.882813v5.5664062h3.1210941v-5.25c0.5969968 0.00611 1.167885 0.038502 1.5371094 0.1425782 1.2864385 0.3654803 2.3905925 1.1768544 2.9921875 2.0546875 1.105088 1.6124976 1.262688 4.6269311 1.25 6.7128908-2e-3 0.331842-0.0044 0.639618-0.0078 0.916015a1.2485763 0.85637717 0 0 1 0.271484-0.02344 1.2485763 0.85637717 0 0 1 0.226563 0.01563c0.0036-0.274393 0.0079-0.579196 0.0098-0.908203 0.012803-2.0976018-0.102375-5.1135002-1.298875-6.8593773-0.650329-0.9489638-1.819486-1.8196207-3.2519532-2.2265625-0.3805909-0.1080945-0.8474525-0.1595926-1.3359376-0.1777344-0.1221166-0.00378-0.2452855-0.0078125-0.3691406-0.0078125zm-3.1445316 6.0390629v0.855468h3.1210941v-0.855468zm9.13086 4.2812498a0.93643236 0.6422829 0 0 0-0.9375 0.642578 0.93643236 0.6422829 0 0 0 0.9375 0.642578 0.93643236 0.6422829 0 0 0 0.935547-0.642578 0.93643236 0.6422829 0 0 0-0.935547-0.642578zm-12.314453 1.027343v0.94336h12.611328v-0.433594a1.2485763 0.85637717 0 0 1-0.263672 0.01953 1.2485763 0.85637717 0 0 1-1.154297-0.529297zm-0.5625 1.328125-0.623047 0.855469h14.982422l-0.625-0.855469z" style="fill:#808080"/>
</svg>

<svg xmlns="http://www.w3.org/2000/svg" width="16" height="16" version="1.1">
 <path style="fill:#808080" d="m 6.429687,0.60553014 c -0.324024,0 -0.647163,0.0412201 -0.935547,0.1230469 -0.271899,0.0774799 -0.625,0.42773426 -0.625,0.42773426 V 1.5840457 H 7.9902341 V 1.1563113 c 0,0 -0.3511631,-0.35070766 -0.6230471,-0.42773426 -0.288383,-0.0818268 -0.613475,-0.1230469 -0.9375,-0.1230469 z M 8.0136716,1.9688113 c -0.3716036,-0.00219 -0.7474866,0.012353 -1.0996096,0.03125 -0.089169,0.00463 -0.076534,0.0083 -0.162109,0.013672 H 4.86914 v 2.7832031 2.7832031 h 3.1210941 v -5.25 c 0.5969968,0.00611 1.167885,0.038502 1.5371094,0.1425782 1.2864385,0.3654803 2.3905925,1.1768544 2.9921875,2.0546875 1.105088,1.6124976 1.262688,4.6269311 1.25,6.7128908 -0.002,0.331842 -0.0044,0.639618 -0.0078,0.916015 a 1.2485763,0.85637717 0 0 1 0.271484,-0.02344 1.2485763,0.85637717 0 0 1 0.226563,0.01563 c 0.0036,-0.274393 0.0079,-0.579196 0.0098,-0.908203 C 14.282381,9.1426962 14.167203,6.1267978 12.970703,4.3809207 12.320374,3.4319569 11.151217,2.5613 9.7187498,2.1543582 9.3381589,2.0462637 8.8712973,1.9947656 8.3828122,1.9766238 8.2606956,1.9728438 8.1375267,1.9688113 8.0136716,1.9688113 Z M 4.86914,8.0078742 v 0.427734 0.427734 H 7.9902341 V 8.0078742 Z M 14,12.289124 A 0.93643236,0.6422829 0 0 0 13.0625,12.931702 0.93643236,0.6422829 0 0 0 14,13.57428 0.93643236,0.6422829 0 0 0 14.935547,12.931702 0.93643236,0.6422829 0 0 0 14,12.289124 Z M 1.685547,13.316467 v 0.94336 h 0.0625 12.548828 v -0.433594 a 1.2485763,0.85637717 0 0 1 -0.263672,0.01953 1.2485763,0.85637717 0 0 1 -1.154297,-0.529297 z M 1.123047,14.644592 0.5,15.500061 h 14.982422 l -0.625,-0.855469 z"/>
</svg>
